X:149
T:Nancy's Waltz
M:3/4
L:1/8
C:Chris Romaine, 1980
K:D
AB||"A"c4 cd|"A7"e3 f g2|"D"f3 e d2|"A"c A3 AB|"A"c4 cd|"F#m"e c3 A2|
"G"G3 A B2|"D"A4 AB|"A"c4 cd|e a3 a2|"D"f3 e d2|"A"c A3 EF|
"G"G3 A B2|"Em"d B3 G2|"D"A4 AB|[1"A"A4 AB:|[2"A"A4 e2||"D"f3 e d2|
"A"c A3 EF|"G"G3 A B2|"A"A4 e2|"D"f3 e d2|"A"c a3 e2|"G"g3 e "D/F#"d2|"E7"e4 ab|
"A"c'3 b af|e c3 Bc|"D"d3 e f2|"A"e c3 EF|"G"G3 A B2|"Em"d B3 G2|"D"A4 AB|"A"A6||
